assets/features/channel/southeast-asia/Viettel.svg

<svg width="80" height="80" viewBox="0 0 80 80" fill="none" xmlns="http://www.w3.org/2000/svg">
<rect width="80" height="80" rx="8" fill="#EF0032"/>
<path d="M21.607 34C21.607 34 20.9751 34.045 20.9743 34.6254L20.9717 36.5725C20.9717 36.5725 21.4661 35.9112 22.1617 35.9112H22.9899C22.9899 35.9112 23.6672 35.8708 23.6672 35.3077V34.6121C23.6672 34.6121 23.6671 34 22.9751 34H21.607ZM39.3588 34.4483C38.6062 34.4483 38.6063 35.1268 38.6063 35.1268V36.6691H36.9405V37.7055C36.9405 37.7055 36.9405 38.3717 37.6931 38.3717H38.6063V43.5414C38.6556 45.236 40.4444 46.2193 41.9743 46.2193H44.0102C44.5654 46.2193 44.6518 45.4536 44.6518 45.4536V44.4667C43.6401 44.6641 42.8133 44.4544 42.8133 44.4544C41.2464 43.9979 41.2958 42.8135 41.2958 42.8135V38.3717H46.6011V43.5414C46.6505 45.236 48.4395 46.2193 49.9694 46.2193H52.0051C52.5603 46.2193 52.6467 45.4536 52.6467 45.4536V44.4667C51.635 44.6641 50.8084 44.4544 50.8084 44.4544C49.2415 43.9979 49.2909 42.8135 49.2909 42.8135V38.3717H51.8706C52.6242 38.3717 52.6096 37.7607 52.6096 37.7607V36.6691H49.2909V35.201C49.2909 34.4906 48.6493 34.4483 48.6493 34.4483H47.3537C46.6011 34.4483 46.6011 35.1268 46.6011 35.1268V36.6691H41.2958V35.201C41.2958 34.4906 40.6544 34.4483 40.6544 34.4483H39.3588ZM66.707 34.4483C65.9543 34.4483 65.9544 35.1268 65.9544 35.1268V43.5414C66.0038 45.236 67.7926 46.2193 69.3225 46.2193H71.3584C71.9136 46.2193 72 45.4536 72 45.4536V44.4667C70.9883 44.6641 70.1615 44.4544 70.1615 44.4544C68.5946 43.9979 68.644 42.8135 68.644 42.8135V35.201C68.644 34.4906 68.0026 34.4483 68.0026 34.4483H66.707ZM30.3042 36.6016C29.8607 36.6027 27.9972 36.6581 26.5681 37.4794C25.6298 38.0186 25.0304 38.9203 25.0038 40.8068C25.0038 40.8068 25.0098 43.6031 25.4046 44.2693C25.4046 44.2693 25.8678 45.22 26.9034 45.7937C27.3509 46.0417 28.2507 46.2193 28.9209 46.2193H35.497C35.497 46.2193 36.1386 46.157 36.1386 45.3674V44.5038H29.5994C29.5994 44.5038 27.8475 44.4544 27.8105 42.468C27.8086 42.3638 27.8083 42.2802 27.807 42.1841H35.2132C35.2132 42.1841 36.5087 42.0855 36.5087 40.4075C36.5087 40.4075 36.7185 38.6801 35.3736 37.6067C34.0288 36.5333 31.8706 36.6346 30.4019 36.6024C30.4019 36.6024 30.3675 36.6015 30.3042 36.6016ZM58.4103 36.6016C57.9668 36.6026 56.1033 36.6581 54.6742 37.4794C53.7359 38.0186 53.1365 38.9203 53.11 40.8068C53.11 40.8068 53.1159 43.6031 53.5107 44.2693C53.5107 44.2693 53.9739 45.22 55.0095 45.7937C55.457 46.0417 56.3568 46.2193 57.027 46.2193H63.6031C63.6031 46.2193 64.2448 46.157 64.2448 45.3674V44.5038H57.7055C57.7055 44.5038 55.9537 44.4544 55.9166 42.468C55.9147 42.3638 55.9142 42.2802 55.9129 42.1841H63.3193C63.3193 42.1841 64.6149 42.0855 64.6149 40.4075C64.6149 40.4075 64.8246 38.6801 63.4797 37.6067C62.1349 36.5333 59.9767 36.6346 58.508 36.6024C58.508 36.6024 58.4737 36.6015 58.4103 36.6016ZM8 36.7027L12.5899 45.5614C12.5899 45.5614 12.8347 46.3112 14.1964 46.3112H14.686C14.686 46.3112 15.6958 46.357 16.1854 45.4849C16.675 44.6128 20.7755 36.7027 20.7755 36.7027H18.6792C18.6792 36.7027 17.8837 36.8251 17.3789 37.8655C16.874 38.9059 14.5484 43.8477 14.5484 43.8477C14.5484 43.8477 14.3648 44.1231 14.2271 43.8477C14.0894 43.5723 11.1976 37.5442 11.1976 37.5442C11.1976 37.5442 10.6774 36.7027 10.096 36.7027H8ZM21.6322 36.7027C21.6322 36.7027 20.9743 36.7028 20.9743 37.4525V45.5768C20.9743 45.5768 21.0202 46.2193 21.6781 46.2193H23.1468C23.1468 46.2193 23.6672 46.1888 23.6672 45.3932V37.3606C23.6672 37.3606 23.5599 36.7027 23.0397 36.7027H21.6322ZM30.7464 38.295C31.5152 38.2953 32.6546 38.4073 33.2638 39.0011C33.2638 39.0011 33.7204 39.3711 33.7204 39.9387C33.7204 40.5185 33.3503 40.5186 33.2392 40.5186H29.1059C29.1059 40.5186 28.4346 40.4605 27.8057 41.0586C27.8186 40.2412 27.8599 39.988 27.8599 39.988C27.8599 39.988 27.8474 38.5567 29.9572 38.3346C29.9572 38.3346 30.2851 38.2948 30.7464 38.295ZM58.8525 38.295C59.6213 38.2953 60.7608 38.4073 61.3699 39.0011C61.3699 39.0011 61.8265 39.3711 61.8265 39.9387C61.8265 40.5185 61.4564 40.5186 61.3453 40.5186H57.212C57.212 40.5186 56.5407 40.4605 55.9118 41.0586C55.9248 40.2412 55.966 39.988 55.966 39.988C55.966 39.988 55.9535 38.5567 58.0633 38.3346C58.0633 38.3346 58.3912 38.2948 58.8525 38.295Z" fill="white"/>
</svg>

<svg xmlns="http://www.w3.org/2000/svg" width="80" height="80" fill="none" viewBox="0 0 80 80"><rect width="80" height="80" fill="#ef0032" rx="8"/><path fill="#fff" d="M21.607 34s-.632.045-.633.625l-.002 1.947s.494-.66 1.19-.66h.828s.677-.041.677-.604v-.696s0-.612-.692-.612zm17.752.448c-.753 0-.753.679-.753.679v1.542H36.94v1.037s0 .666.753.666h.913v5.17c.05 1.694 1.838 2.677 3.368 2.677h2.036c.555 0 .642-.765.642-.765v-.987c-1.012.197-1.839-.013-1.839-.013-1.567-.456-1.517-1.64-1.517-1.64v-4.442H46.6v5.17c.05 1.694 1.839 2.677 3.368 2.677h2.036c.555 0 .642-.765.642-.765v-.987c-1.012.197-1.839-.013-1.839-.013-1.566-.456-1.517-1.64-1.517-1.64v-4.442h2.58c.753 0 .739-.611.739-.611v-1.092h-3.32v-1.468c0-.71-.64-.753-.64-.753h-1.296c-.753 0-.753.679-.753.679v1.542h-5.305v-1.468c0-.71-.642-.753-.642-.753zm27.348 0c-.753 0-.753.679-.753.679v8.414c.05 1.695 1.839 2.678 3.369 2.678h2.035c.556 0 .642-.765.642-.765v-.987c-1.012.197-1.838-.013-1.838-.013-1.567-.456-1.518-1.64-1.518-1.64V35.2c0-.71-.641-.753-.641-.753zm-36.403 2.154c-.443 0-2.307.056-3.736.877-.938.54-1.538 1.441-1.564 3.328 0 0 .006 2.796.4 3.462 0 0 .464.951 1.5 1.525.447.248 1.347.425 2.017.425h6.576s.642-.062.642-.852v-.863h-6.54s-1.751-.05-1.788-2.036l-.004-.284h7.406s1.296-.098 1.296-1.776c0 0 .21-1.728-1.135-2.801s-3.503-.972-4.972-1.005zm28.106 0c-.443 0-2.307.056-3.736.877-.938.54-1.538 1.441-1.564 3.328 0 0 .006 2.796.4 3.462 0 0 .464.951 1.5 1.525.447.248 1.347.425 2.017.425h6.576s.642-.062.642-.852v-.863h-6.54s-1.751-.05-1.788-2.036l-.004-.284h7.406s1.296-.098 1.296-1.776c0 0 .21-1.728-1.135-2.801s-3.503-.972-4.972-1.005zm-50.41.1 4.59 8.86s.245.75 1.606.75h.49s1.01.045 1.5-.827c.489-.872 4.59-8.782 4.59-8.782h-2.097s-.795.122-1.3 1.162-2.83 5.983-2.83 5.983-.184.275-.322 0c-.138-.276-3.03-6.304-3.03-6.304s-.52-.841-1.101-.841zm13.632 0s-.658 0-.658.75v8.125s.046.642.704.642h1.469s.52-.03.52-.826v-8.032s-.107-.658-.627-.658zm9.114 1.593c.77 0 1.909.112 2.518.706 0 0 .456.37.456.938 0 .58-.37.58-.48.58h-4.134s-.671-.058-1.3.54c.013-.818.054-1.071.054-1.071s-.013-1.431 2.097-1.653c0 0 .328-.04.79-.04m28.107 0c.768 0 1.908.112 2.517.706 0 0 .457.37.457.938 0 .58-.37.58-.482.58h-4.133s-.671-.058-1.3.54c.013-.818.054-1.071.054-1.071s-.013-1.431 2.097-1.653c0 0 .328-.04.79-.04"/></svg>
